src/assets/duotone/TagCross.svg

<svg width="24" height="24" viewBox="0 0 24 24"  xmlns="http://www.w3.org/2000/svg">
<path opacity="0.4" d="M10.2802 20.25H17.0002C19.7602 20.25 22.0002 18.01 22.0002 15.25V8.75C22.0002 5.99 19.7602 3.75 17.0002 3.75H10.2802C8.87018 3.75 7.53018 4.34 6.58018 5.39L3.05018 9.27C1.64018 10.82 1.64018 13.18 3.05018 14.73L6.58018 18.61C7.53018 19.66 8.87018 20.25 10.2802 20.25Z" />
<path d="M14.59 11.9997L16.53 10.0597C16.82 9.76973 16.82 9.28973 16.53 8.99973C16.24 8.70973 15.76 8.70973 15.47 8.99973L13.53 10.9397L11.59 8.99973C11.3 8.70973 10.82 8.70973 10.53 8.99973C10.24 9.28973 10.24 9.76973 10.53 10.0597L12.47 11.9997L10.53 13.9397C10.24 14.2297 10.24 14.7097 10.53 14.9997C10.68 15.1497 10.87 15.2197 11.06 15.2197C11.25 15.2197 11.44 15.1497 11.59 14.9997L13.53 13.0597L15.47 14.9997C15.62 15.1497 15.81 15.2197 16 15.2197C16.19 15.2197 16.38 15.1497 16.53 14.9997C16.82 14.7097 16.82 14.2297 16.53 13.9397L14.59 11.9997Z" />
</svg>

<?xml version="1.0" encoding="UTF-8"?>
<svg width="24" height="24" viewBox="0 0 24 24" xmlns="http://www.w3.org/2000/svg">
 <path d="m10.28 20.25h6.72c2.76 0 5-2.24 5-5v-6.5c0-2.76-2.24-5-5-5h-6.72c-1.41 0-2.75 0.59-3.7 1.64l-3.53 3.88c-1.41 1.55-1.41 3.91 0 5.46l3.53 3.88c0.95 1.05 2.29 1.64 3.7 1.64z" opacity=".4"/>
 <path d="m14.59 12 1.94-1.94c0.29-0.28997 0.29-0.76997 0-1.06s-0.77-0.29-1.06 0l-1.94 1.94-1.94-1.94c-0.29-0.29-0.77-0.29-1.06 0s-0.29 0.77 0 1.06l1.94 1.94-1.94 1.94c-0.29 0.29-0.29 0.77 0 1.06 0.15 0.15 0.34 0.22 0.53 0.22s0.38-0.07 0.53-0.22l1.94-1.94 1.94 1.94c0.15 0.15 0.34 0.22 0.53 0.22s0.38-0.07 0.53-0.22c0.29-0.29 0.29-0.77 0-1.06l-1.94-1.94z"/>
</svg>
